X:301
T: JETZT GEH ICH ANS BRUENNELEIN
N: Z0299
O: Europa, Mitteleuropa, Deutschland, Rhein; Schwaben
R: Lyrisches Lied, Romanze, verlassene Liebe
M: 3/8
L: 1/16
K: G
D2 | G3FGA | B3cB2 | BAA2AB | G2z2
G2 | B3ABc | d3ed2 | dcc2d2 | B2z2
d2 | dcc2c2 | B2dcB2 | A2A2A2 | B2z2
d2 | dcc2c2 | B2dcB2 | A2A2A2 | B2z2

